source/img/icon-mail.svg

<svg width="25" height="25" viewBox="0 0 25 25" fill="none" xmlns="http://www.w3.org/2000/svg">
<path fill-rule="evenodd" clip-rule="evenodd" d="M12.5 0C5.59646 0 0 5.59646 0 12.5C0 19.4035 5.59646 25 12.5 25C19.4035 25 25 19.4035 25 12.5C25 5.59646 19.4035 0 12.5 0ZM5.20833 12.4793C5.20833 8.4701 8.47927 5.20833 12.4999 5.20833C16.5205 5.20833 19.7915 8.4701 19.7915 12.4793C19.7915 13.0473 19.7441 13.5071 19.6379 13.9686L19.6364 13.9762C19.6361 13.9776 19.5834 14.1904 19.5543 14.2832C19.3741 14.8579 19.0478 15.3366 18.6107 15.6674C18.1868 15.9884 17.6611 16.1652 17.1307 16.1652C17.0652 16.1652 16.9992 16.1625 16.9346 16.1573C16.1814 16.097 15.5191 15.7018 15.1129 15.0715C14.4144 15.7719 13.4877 16.1572 12.4999 16.1572C10.4662 16.1572 8.81167 14.5073 8.81167 12.4793C8.81167 10.4514 10.4662 8.80151 12.4999 8.80151C14.5336 8.80151 16.1881 10.4514 16.1881 12.4793V13.6649C16.1911 14.3567 16.6567 14.6394 17.0544 14.6714C17.4501 14.7019 17.9767 14.472 18.1601 13.7219C18.2506 13.3105 18.2966 12.8923 18.2966 12.4793C18.2966 9.29203 15.6962 6.69901 12.4999 6.69901C9.30359 6.69901 6.70328 9.29203 6.70328 12.4793C6.70328 15.6666 9.30359 18.2596 12.4999 18.2596C13.6125 18.2596 14.6946 17.9428 15.6291 17.3433L15.6459 17.3325L16.6282 18.4714L16.6071 18.4857C15.3932 19.3131 13.9729 19.7504 12.4999 19.7504C8.47927 19.7504 5.20833 16.4886 5.20833 12.4793Z"/>
<path fill-rule="evenodd" clip-rule="evenodd" d="M14.6932 12.4793C14.6932 13.6853 13.7093 14.6665 12.4999 14.6665C11.2905 14.6665 10.3066 13.6853 10.3066 12.4793C10.3066 11.2734 11.2905 10.2923 12.4999 10.2923C13.7093 10.2923 14.6932 11.2734 14.6932 12.4793Z"/>
</svg>

<svg width="25" height="25" viewBox="0 0 25 25" fill="none" xmlns="http://www.w3.org/2000/svg"><path clip-rule="evenodd" d="M12.5 0C5.596 0 0 5.596 0 12.5S5.596 25 12.5 25 25 19.404 25 12.5 19.404 0 12.5 0zM5.208 12.48c0-4.01 3.271-7.272 7.292-7.272 4.02 0 7.291 3.262 7.291 7.271a6.44 6.44 0 01-.153 1.49l-.002.007c0 .002-.053.214-.082.307-.18.575-.506 1.054-.943 1.384a2.467 2.467 0 01-1.676.49 2.372 2.372 0 01-1.822-1.085 3.687 3.687 0 01-6.301-2.592A3.687 3.687 0 0112.5 8.801a3.687 3.687 0 013.688 3.677v1.186c.003.692.469.974.866 1.006.396.03.923-.199 1.106-.95.09-.41.137-.829.137-1.242 0-3.187-2.6-5.78-5.797-5.78-3.196 0-5.797 2.593-5.797 5.78 0 3.188 2.6 5.78 5.797 5.78a5.784 5.784 0 003.13-.916l.016-.01.982 1.138-.02.015A7.263 7.263 0 0112.5 19.75c-4.02 0-7.292-3.261-7.292-7.27z"/><path clip-rule="evenodd" d="M14.693 12.48a2.193 2.193 0 01-4.386 0 2.193 2.193 0 014.387 0z"/></svg>
